ion/clipboard.svg

<svg viewBox="0 0 512 512" xmlns="http://www.w3.org/2000/svg"><path d="M368 48h-11.41v0c-3.29-.01-6.24-2.02-7.44-5.08v0c-6.3-16.22-21.89-26.91-39.28-26.92H202.13v0c-17.4.01-32.99 10.7-39.28 26.92l-.001-.001c-1.21 3.06-4.16 5.07-7.44 5.08h-11.41v0c-35.35 0-64 28.65-64 64v320 0c0 35.34 28.65 64 64 64h224v0c35.34 0 64-28.66 64-64v-320 0c0-35.35-28.66-64-64-64Zm-48.13 64H192.13v0c-8.84 0-16-7.17-16-16 0-8.84 7.16-16 16-16h127.74v0c8.83 0 16 7.16 16 16 0 8.83-7.17 16-16 16Z"/></svg>

<svg xmlns="http://www.w3.org/2000/svg" width="512" height="512" viewBox="0 0 512 512"><path d="M368,48H356.59a8,8,0,0,1-7.44-5.08A42.18,42.18,0,0,0,309.87,16H202.13a42.18,42.18,0,0,0-39.28,26.92A8,8,0,0,1,155.41,48H144a64,64,0,0,0-64,64V432a64,64,0,0,0,64,64H368a64,64,0,0,0,64-64V112A64,64,0,0,0,368,48Zm-48.13,64H192.13a16,16,0,0,1,0-32H319.87a16,16,0,0,1,0,32Z"/></svg>
